Simply-Orange-Circles/scalable/apps/okteta.svg

<svg xmlns="http://www.w3.org/2000/svg" width="48" height="48" viewBox="0 0 12.7 12.7"><defs><filter id="a" width="100%" height="100%" x="0%" y="0%" filterUnits="objectBoundingBox"><feColorMatrix in="SourceGraphic" values="0 0 0 0 1 0 0 0 0 1 0 0 0 0 1 0 0 0 1 0"/></filter></defs><path d="M6.34.07a6.29 6.29 0 0 0-6.29 6.3 6.29 6.29 0 0 0 6.3 6.28 6.29 6.29 0 0 0 6.28-6.29A6.29 6.29 0 0 0 6.34.07zm-.01.94a5.4 5.4 0 0 1 1.81.32 5.4 5.4 0 0 1 .98.46 5.4 5.4 0 0 1 .96.74 5.4 5.4 0 0 1 1.09 1.49 5.4 5.4 0 0 1 .48 1.48.36.36 0 0 1-.32-.18 1.13 1.13 0 0 1-.1-.56c0-.2.03-.32.08-.43a5.4 5.4 0 0 0-.14-.31l-.05.04c-.13.16-.19.4-.19.7 0 .3.06.54.19.7a.6.6 0 0 0 .23.18c.1.04.2.06.32.06a5.4 5.4 0 0 1 .06.72 5.4 5.4 0 0 1-.02.52 5.4 5.4 0 0 1-.03.2 5.4 5.4 0 0 1-.34 1.3 1.13 1.13 0 0 1-.12-.56c0-.25.04-.44.11-.56a.37.37 0 0 1 .34-.2v.02a5.4 5.4 0 0 0 .04-.2h-.04a.77.77 0 0 0-.32.05.6.6 0 0 0-.23.19c-.13.16-.19.4-.19.7 0 .3.06.54.19.7.03.04.08.06.11.09a5.4 5.4 0 0 1-1.03 1.5c-.02-.01-.04-.04-.08-.05a.77.77 0 0 0-.31-.07.77.77 0 0 0-.31.07.6.6 0 0 0-.24.18c-.12.16-.18.4-.18.7l.01.06a5.4 5.4 0 0 1-.95.44V10.1h-.28l-.51.09v.22l.5-.09v1.29a5.4 5.4 0 0 1-.4.1h-.06v.01a5.4 5.4 0 0 1-.9.1c.06-.03.11-.06.15-.1.13-.17.2-.4.2-.71 0-.3-.07-.54-.2-.7a.6.6 0 0 0-.23-.18.77.77 0 0 0-.31-.07.77.77 0 0 0-.32.07.6.6 0 0 0-.23.18c-.13.16-.19.4-.19.7 0 .3.06.54.19.7l.1.07a5.4 5.4 0 0 1-1.22-.3V10.1h-.29l-.5.09v.22l.5-.09v1.05a5.4 5.4 0 0 1-1.57-1.06v-.21h-.2A5.4 5.4 0 0 1 .91 6.42a5.4 5.4 0 0 1 .08-.9 5.4 5.4 0 0 1 .08-.37 5.4 5.4 0 0 0-.08.37l.07-.06c.13-.16.2-.4.2-.7 0-.06-.04-.08-.04-.12a5.4 5.4 0 0 0-.15.51 5.4 5.4 0 0 1 .15-.51 5.4 5.4 0 0 1 1.32-2.1 5.4 5.4 0 0 1 .02 0A5.4 5.4 0 0 1 6.33 1zM2.57 2.53a5.4 5.4 0 0 0-.02.02l.15-.03a.6.6 0 0 0 .23-.18c.03-.04.02-.12.04-.16a5.4 5.4 0 0 0-.4.35zm7.5 0a5.4 5.4 0 0 0-.19-.18c-.03 0-.04.04-.07.04a.37.37 0 0 1-.33-.2c-.03-.04-.03-.13-.04-.2a5.4 5.4 0 0 0-.32-.2c.02.22.05.42.14.55a.6.6 0 0 0 .24.18.77.77 0 0 0 .58 0zm-1.93-1.2a5.4 5.4 0 0 0-.28-.1v1.1h-.47v.22H8.6v-.21h-.47v-1zM6.3 1.01a5.4 5.4 0 0 0-.29.01v1.32h-.47v.2h1.23v-.2h-.47V1zm-1.43.2a5.4 5.4 0 0 0-.24.08c.03.11.07.2.07.35 0 .25-.04.43-.12.56a.36.36 0 0 1-.33.19.37.37 0 0 1-.33-.2c-.08-.11-.11-.3-.11-.55a5.4 5.4 0 0 0-.25.15c.02.21.05.42.14.55a.6.6 0 0 0 .24.18c.09.04.2.06.31.06.12 0 .22-.02.32-.06a.6.6 0 0 0 .23-.18c.12-.16.18-.4.18-.7 0-.19-.06-.3-.1-.43zm-2.48 2.6a.77.77 0 0 0-.31.06.6.6 0 0 0-.23.19c-.13.16-.2.4-.2.7 0 .3.07.54.2.7a.6.6 0 0 0 .23.18c.09.04.2.06.31.06.12 0 .23-.02.32-.06a.6.6 0 0 0 .23-.18c.13-.16.19-.4.19-.7 0-.3-.06-.54-.2-.7a.6.6 0 0 0-.22-.19.77.77 0 0 0-.32-.06zm3.72 0a.77.77 0 0 0-.32.06.6.6 0 0 0-.23.19c-.13.16-.19.4-.19.7 0 .3.06.54.19.7a.6.6 0 0 0 .23.18c.1.04.2.06.32.06s.22-.02.31-.06a.6.6 0 0 0 .23-.18c.13-.16.2-.4.2-.7 0-.3-.07-.54-.2-.7a.6.6 0 0 0-.23-.19.77.77 0 0 0-.31-.06zm3.71 0a.77.77 0 0 0-.31.06.6.6 0 0 0-.24.19c-.12.16-.18.4-.18.7 0 .3.06.54.18.7a.6.6 0 0 0 .24.18c.09.04.2.06.31.06.12 0 .22-.02.32-.06a.6.6 0 0 0 .23-.18c.12-.16.19-.4.19-.7 0-.3-.07-.54-.2-.7a.6.6 0 0 0-.22-.19.77.77 0 0 0-.32-.06zm-5.67.04l-.5.08v.23l.5-.09v1.39h-.47v.2H4.9v-.2h-.47V3.85h-.29zm3.72 0l-.51.08v.23l.5-.09v1.39H7.4v.2H8.6v-.2h-.47V3.85h-.28zM2.38 4c.15 0 .26.06.34.19.07.12.11.3.11.56 0 .25-.04.43-.11.56a.36.36 0 0 1-.34.19.37.37 0 0 1-.33-.19 1.13 1.13 0 0 1-.11-.56c0-.25.04-.44.1-.56a.37.37 0 0 1 .34-.2zM6.1 4c.15 0 .26.06.33.19.08.12.11.3.11.56 0 .25-.03.43-.1.56a.36.36 0 0 1-.34.19.37.37 0 0 1-.34-.19 1.13 1.13 0 0 1-.1-.56c0-.25.03-.44.1-.56A.37.37 0 0 1 6.1 4zM9.8 4c.15 0 .26.06.34.19.07.12.1.3.1.56 0 .25-.03.43-.1.56a.36.36 0 0 1-.34.19.37.37 0 0 1-.33-.19 1.13 1.13 0 0 1-.12-.56c0-.25.04-.44.12-.56A.37.37 0 0 1 9.8 4zM2.38 6.93a.77.77 0 0 0-.31.06.6.6 0 0 0-.23.19c-.13.16-.2.4-.2.7 0 .3.07.54.2.7a.6.6 0 0 0 .23.18c.09.04.2.06.31.06.12 0 .23-.02.32-.06a.6.6 0 0 0 .23-.18c.13-.16.19-.4.19-.7 0-.3-.06-.54-.2-.7a.6.6 0 0 0-.22-.19.77.77 0 0 0-.32-.06zm1.86 0a.77.77 0 0 0-.31.06.6.6 0 0 0-.24.19c-.12.16-.18.4-.18.7 0 .3.06.54.18.7a.6.6 0 0 0 .24.18c.09.04.2.06.31.06.12 0 .22-.02.32-.06a.6.6 0 0 0 .23-.18c.12-.16.18-.4.18-.7 0-.3-.06-.54-.18-.7a.6.6 0 0 0-.23-.19.77.77 0 0 0-.32-.06zM6 6.97l-.51.08v.23L6 7.19v1.39h-.47v.2h1.23v-.2h-.47V6.97h-.3zm1.86 0l-.51.08v.23l.5-.09v1.39H7.4v.2H8.6v-.2h-.47V6.97h-.28zm1.85 0l-.5.08v.23l.5-.09v1.39h-.47v.2h1.23v-.2H10V6.97H9.7zm-7.33.16c.15 0 .26.06.34.19.07.12.11.3.11.56 0 .25-.04.44-.11.56a.36.36 0 0 1-.34.19.37.37 0 0 1-.33-.19 1.13 1.13 0 0 1-.11-.56c0-.25.04-.44.1-.56a.37.37 0 0 1 .34-.2zm1.86 0c.15 0 .26.06.33.19.08.12.12.3.12.56 0 .25-.04.44-.12.56a.36.36 0 0 1-.33.19.37.37 0 0 1-.33-.19 1.13 1.13 0 0 1-.12-.56c0-.25.04-.44.12-.56a.37.37 0 0 1 .33-.2zm7.1 1.32a5.4 5.4 0 0 1-.1.21 5.4 5.4 0 0 0 .1-.21zm-8.97 1.64a5.4 5.4 0 0 0 .2.2 5.4 5.4 0 0 1-.2-.2zm7.82.1a5.4 5.4 0 0 1-.17.17 5.4 5.4 0 0 0 .17-.17zm-4.1.06c.16 0 .27.06.34.19.08.12.11.3.11.56 0 .25-.03.44-.1.56a.36.36 0 0 1-.34.19.37.37 0 0 1-.34-.19 1.13 1.13 0 0 1-.1-.56c0-.25.03-.44.1-.56a.37.37 0 0 1 .34-.19zm3.72 0c.1 0 .14.07.2.11a5.4 5.4 0 0 1-.62.5c.01-.16.03-.33.09-.42a.37.37 0 0 1 .33-.19zm-.42.62a5.4 5.4 0 0 1-.3.18 5.4 5.4 0 0 0 .3-.18zm-5.24.5a5.4 5.4 0 0 0 .27.1 5.4 5.4 0 0 1-.27-.1zm1.5.4a5.4 5.4 0 0 0 .4.04 5.4 5.4 0 0 1-.4-.03z" fill="#ff7f2a"/></svg>

<?xml version="1.0" encoding="UTF-8" standalone="no"?>
<svg
   xmlns:dc="http://purl.org/dc/elements/1.1/"
   xmlns:cc="http://creativecommons.org/ns#"
   xmlns:rdf="http://www.w3.org/1999/02/22-rdf-syntax-ns#"
   xmlns:svg="http://www.w3.org/2000/svg"
   xmlns="http://www.w3.org/2000/svg"
   xmlns:sodipodi="http://sodipodi.sourceforge.net/DTD/sodipodi-0.dtd"
   xmlns:inkscape="http://www.inkscape.org/namespaces/inkscape"
   width="48"
   height="48"
   viewBox="0 0 12.7 12.7"
   version="1.1"
   id="svg9"
   sodipodi:docname="okteta.svg"
   inkscape:version="0.92.4 (5da689c313, 2019-01-14)">
  <metadata
     id="metadata13">
    <rdf:RDF>
      <cc:Work
         rdf:about="">
        <dc:format>image/svg+xml</dc:format>
        <dc:type
           rdf:resource="http://purl.org/dc/dcmitype/StillImage" />
        <dc:title></dc:title>
      </cc:Work>
    </rdf:RDF>
  </metadata>
  <sodipodi:namedview
     pagecolor="#ffffff"
     bordercolor="#666666"
     borderopacity="1"
     objecttolerance="10"
     gridtolerance="10"
     guidetolerance="10"
     inkscape:pageopacity="0"
     inkscape:pageshadow="2"
     inkscape:window-width="1087"
     inkscape:window-height="480"
     id="namedview11"
     showgrid="false"
     inkscape:zoom="4.9166667"
     inkscape:cx="2.1355932"
     inkscape:cy="24"
     inkscape:window-x="0"
     inkscape:window-y="25"
     inkscape:window-maximized="0"
     inkscape:current-layer="svg9" />
  <defs
     id="defs5">
    <filter
       id="a"
       width="100%"
       height="100%"
       x="0%"
       y="0%"
       filterUnits="objectBoundingBox">
      <feColorMatrix
         in="SourceGraphic"
         values="0 0 0 0 1 0 0 0 0 1 0 0 0 0 1 0 0 0 1 0"
         id="feColorMatrix2" />
    </filter>
  </defs>
  <path
     d="M 6.34,0.07 A 6.29,6.29 0 0 0 0.05,6.37 6.29,6.29 0 0 0 6.35,12.65 6.29,6.29 0 0 0 12.63,6.36 6.29,6.29 0 0 0 6.34,0.07 Z M 6.33,1.01 a 5.4,5.4 0 0 1 1.81,0.32 5.4,5.4 0 0 1 0.98,0.46 5.4,5.4 0 0 1 0.96,0.74 5.4,5.4 0 0 1 1.09,1.49 5.4,5.4 0 0 1 0.48,1.48 0.36,0.36 0 0 1 -0.32,-0.18 1.13,1.13 0 0 1 -0.1,-0.56 c 0,-0.2 0.03,-0.32 0.08,-0.43 A 5.4,5.4 0 0 0 11.17,4.02 l -0.05,0.04 c -0.13,0.16 -0.19,0.4 -0.19,0.7 0,0.3 0.06,0.54 0.19,0.7 a 0.6,0.6 0 0 0 0.23,0.18 c 0.1,0.04 0.2,0.06 0.32,0.06 a 5.4,5.4 0 0 1 0.06,0.72 5.4,5.4 0 0 1 -0.02,0.52 5.4,5.4 0 0 1 -0.03,0.2 5.4,5.4 0 0 1 -0.34,1.3 1.13,1.13 0 0 1 -0.12,-0.56 c 0,-0.25 0.04,-0.44 0.11,-0.56 a 0.37,0.37 0 0 1 0.34,-0.2 v 0.02 a 5.4,5.4 0 0 0 0.04,-0.2 h -0.04 a 0.77,0.77 0 0 0 -0.32,0.05 0.6,0.6 0 0 0 -0.23,0.19 c -0.13,0.16 -0.19,0.4 -0.19,0.7 0,0.3 0.06,0.54 0.19,0.7 0.03,0.04 0.08,0.06 0.11,0.09 a 5.4,5.4 0 0 1 -1.03,1.5 C 10.18,10.16 10.16,10.13 10.12,10.12 A 0.77,0.77 0 0 0 9.81,10.05 0.77,0.77 0 0 0 9.5,10.12 0.6,0.6 0 0 0 9.26,10.3 C 9.14,10.46 9.08,10.7 9.08,11 l 0.01,0.06 A 5.4,5.4 0 0 1 8.14,11.5 V 10.1 H 7.86 l -0.51,0.09 v 0.22 l 0.5,-0.09 v 1.29 a 5.4,5.4 0 0 1 -0.4,0.1 H 7.39 v 0.01 a 5.4,5.4 0 0 1 -0.9,0.1 c 0.06,-0.03 0.11,-0.06 0.15,-0.1 0.13,-0.17 0.2,-0.4 0.2,-0.71 0,-0.3 -0.07,-0.54 -0.2,-0.7 A 0.6,0.6 0 0 0 6.41,10.13 0.77,0.77 0 0 0 6.1,10.06 0.77,0.77 0 0 0 5.78,10.13 0.6,0.6 0 0 0 5.55,10.31 c -0.13,0.16 -0.19,0.4 -0.19,0.7 0,0.3 0.06,0.54 0.19,0.7 l 0.1,0.07 A 5.4,5.4 0 0 1 4.43,11.48 V 10.1 H 4.14 l -0.5,0.09 v 0.22 l 0.5,-0.09 v 1.05 A 5.4,5.4 0 0 1 2.57,10.31 V 10.1 H 2.37 A 5.4,5.4 0 0 1 0.91,6.42 5.4,5.4 0 0 1 0.99,5.52 5.4,5.4 0 0 1 1.07,5.15 5.4,5.4 0 0 0 0.99,5.52 L 1.06,5.46 C 1.19,5.3 1.26,5.06 1.26,4.76 1.26,4.7 1.22,4.68 1.22,4.64 A 5.4,5.4 0 0 0 1.07,5.15 5.4,5.4 0 0 1 1.22,4.64 5.4,5.4 0 0 1 2.54,2.54 5.4,5.4 0 0 1 2.56,2.54 5.4,5.4 0 0 1 6.33,1 Z M 2.57,2.53 A 5.4,5.4 0 0 0 2.55,2.55 L 2.7,2.52 A 0.6,0.6 0 0 0 2.93,2.34 C 2.96,2.3 2.95,2.22 2.97,2.18 a 5.4,5.4 0 0 0 -0.4,0.35 z m 7.5,0 A 5.4,5.4 0 0 0 9.88,2.35 C 9.85,2.35 9.84,2.39 9.81,2.39 A 0.37,0.37 0 0 1 9.48,2.19 C 9.45,2.15 9.45,2.06 9.44,1.99 A 5.4,5.4 0 0 0 9.12,1.79 c 0.02,0.22 0.05,0.42 0.14,0.55 a 0.6,0.6 0 0 0 0.24,0.18 0.77,0.77 0 0 0 0.58,0 z M 8.14,1.33 A 5.4,5.4 0 0 0 7.86,1.23 v 1.1 H 7.39 V 2.55 H 8.6 V 2.34 H 8.13 v -1 z M 6.3,1.01 A 5.4,5.4 0 0 0 6.01,1.02 V 2.34 H 5.54 v 0.2 H 6.77 V 2.34 H 6.3 V 1 Z M 4.87,1.21 A 5.4,5.4 0 0 0 4.63,1.29 C 4.66,1.4 4.7,1.49 4.7,1.64 4.7,1.89 4.66,2.07 4.58,2.2 A 0.36,0.36 0 0 1 4.25,2.39 0.37,0.37 0 0 1 3.92,2.19 C 3.84,2.08 3.81,1.89 3.81,1.64 A 5.4,5.4 0 0 0 3.56,1.79 C 3.58,2 3.61,2.21 3.7,2.34 a 0.6,0.6 0 0 0 0.24,0.18 c 0.09,0.04 0.2,0.06 0.31,0.06 0.12,0 0.22,-0.02 0.32,-0.06 A 0.6,0.6 0 0 0 4.8,2.34 C 4.92,2.18 4.98,1.94 4.98,1.64 4.98,1.45 4.92,1.34 4.88,1.21 Z M 2.39,3.81 A 0.77,0.77 0 0 0 2.08,3.87 0.6,0.6 0 0 0 1.85,4.06 c -0.13,0.16 -0.2,0.4 -0.2,0.7 0,0.3 0.07,0.54 0.2,0.7 A 0.6,0.6 0 0 0 2.08,5.64 C 2.17,5.68 2.28,5.7 2.39,5.7 2.51,5.7 2.62,5.68 2.71,5.64 A 0.6,0.6 0 0 0 2.94,5.46 C 3.07,5.3 3.13,5.06 3.13,4.76 3.13,4.46 3.07,4.22 2.93,4.06 A 0.6,0.6 0 0 0 2.71,3.87 0.77,0.77 0 0 0 2.39,3.81 Z m 3.72,0 A 0.77,0.77 0 0 0 5.79,3.87 0.6,0.6 0 0 0 5.56,4.06 c -0.13,0.16 -0.19,0.4 -0.19,0.7 0,0.3 0.06,0.54 0.19,0.7 A 0.6,0.6 0 0 0 5.79,5.64 C 5.89,5.68 5.99,5.7 6.11,5.7 6.23,5.7 6.33,5.68 6.42,5.64 A 0.6,0.6 0 0 0 6.65,5.46 c 0.13,-0.16 0.2,-0.4 0.2,-0.7 0,-0.3 -0.07,-0.54 -0.2,-0.7 A 0.6,0.6 0 0 0 6.42,3.87 0.77,0.77 0 0 0 6.11,3.81 Z m 3.71,0 A 0.77,0.77 0 0 0 9.51,3.87 0.6,0.6 0 0 0 9.27,4.06 c -0.12,0.16 -0.18,0.4 -0.18,0.7 0,0.3 0.06,0.54 0.18,0.7 a 0.6,0.6 0 0 0 0.24,0.18 c 0.09,0.04 0.2,0.06 0.31,0.06 0.12,0 0.22,-0.02 0.32,-0.06 a 0.6,0.6 0 0 0 0.23,-0.18 c 0.12,-0.16 0.19,-0.4 0.19,-0.7 0,-0.3 -0.07,-0.54 -0.2,-0.7 A 0.6,0.6 0 0 0 10.14,3.87 0.77,0.77 0 0 0 9.82,3.81 Z M 4.15,3.85 3.65,3.93 V 4.16 L 4.15,4.07 V 5.46 H 3.68 v 0.2 H 4.9 V 5.46 H 4.43 V 3.85 H 4.14 Z m 3.72,0 -0.51,0.08 V 4.16 L 7.86,4.07 V 5.46 H 7.4 v 0.2 H 8.6 V 5.46 H 8.13 V 3.85 H 7.85 Z M 2.38,4 C 2.53,4 2.64,4.06 2.72,4.19 2.79,4.31 2.83,4.49 2.83,4.75 2.83,5 2.79,5.18 2.72,5.31 A 0.36,0.36 0 0 1 2.38,5.5 0.37,0.37 0 0 1 2.05,5.31 1.13,1.13 0 0 1 1.94,4.75 C 1.94,4.5 1.98,4.31 2.04,4.19 A 0.37,0.37 0 0 1 2.38,3.99 Z M 6.1,4 C 6.25,4 6.36,4.06 6.43,4.19 6.51,4.31 6.54,4.49 6.54,4.75 6.54,5 6.51,5.18 6.44,5.31 A 0.36,0.36 0 0 1 6.1,5.5 0.37,0.37 0 0 1 5.76,5.31 1.13,1.13 0 0 1 5.66,4.75 C 5.66,4.5 5.69,4.31 5.76,4.19 A 0.37,0.37 0 0 1 6.1,4 Z m 3.7,0 c 0.15,0 0.26,0.06 0.34,0.19 0.07,0.12 0.1,0.3 0.1,0.56 0,0.25 -0.03,0.43 -0.1,0.56 A 0.36,0.36 0 0 1 9.8,5.5 0.37,0.37 0 0 1 9.47,5.31 1.13,1.13 0 0 1 9.35,4.75 C 9.35,4.5 9.39,4.31 9.47,4.19 A 0.37,0.37 0 0 1 9.8,4 Z M 2.38,6.93 A 0.77,0.77 0 0 0 2.07,6.99 0.6,0.6 0 0 0 1.84,7.18 c -0.13,0.16 -0.2,0.4 -0.2,0.7 0,0.3 0.07,0.54 0.2,0.7 A 0.6,0.6 0 0 0 2.07,8.76 C 2.16,8.8 2.27,8.82 2.38,8.82 2.5,8.82 2.61,8.8 2.7,8.76 A 0.6,0.6 0 0 0 2.93,8.58 C 3.06,8.42 3.12,8.18 3.12,7.88 3.12,7.58 3.06,7.34 2.92,7.18 A 0.6,0.6 0 0 0 2.7,6.99 0.77,0.77 0 0 0 2.38,6.93 Z m 1.86,0 A 0.77,0.77 0 0 0 3.93,6.99 0.6,0.6 0 0 0 3.69,7.18 c -0.12,0.16 -0.18,0.4 -0.18,0.7 0,0.3 0.06,0.54 0.18,0.7 A 0.6,0.6 0 0 0 3.93,8.76 C 4.02,8.8 4.13,8.82 4.24,8.82 4.36,8.82 4.46,8.8 4.56,8.76 A 0.6,0.6 0 0 0 4.79,8.58 C 4.91,8.42 4.97,8.18 4.97,7.88 4.97,7.58 4.91,7.34 4.79,7.18 A 0.6,0.6 0 0 0 4.56,6.99 0.77,0.77 0 0 0 4.24,6.93 Z M 6,6.97 5.49,7.05 V 7.28 L 6,7.19 V 8.58 H 5.53 v 0.2 H 6.76 V 8.58 H 6.29 V 6.97 h -0.3 z m 1.86,0 -0.51,0.08 V 7.28 L 7.85,7.19 V 8.58 H 7.4 v 0.2 H 8.6 V 8.58 H 8.13 V 6.97 H 7.85 Z m 1.85,0 -0.5,0.08 V 7.28 L 9.71,7.19 V 8.58 H 9.24 v 0.2 h 1.23 V 8.58 H 10 V 6.97 H 9.7 Z M 2.38,7.13 c 0.15,0 0.26,0.06 0.34,0.19 0.07,0.12 0.11,0.3 0.11,0.56 0,0.25 -0.04,0.44 -0.11,0.56 A 0.36,0.36 0 0 1 2.38,8.63 0.37,0.37 0 0 1 2.05,8.44 1.13,1.13 0 0 1 1.94,7.88 c 0,-0.25 0.04,-0.44 0.1,-0.56 a 0.37,0.37 0 0 1 0.34,-0.2 z m 1.86,0 c 0.15,0 0.26,0.06 0.33,0.19 0.08,0.12 0.12,0.3 0.12,0.56 0,0.25 -0.04,0.44 -0.12,0.56 A 0.36,0.36 0 0 1 4.24,8.63 0.37,0.37 0 0 1 3.91,8.44 1.13,1.13 0 0 1 3.79,7.88 c 0,-0.25 0.04,-0.44 0.12,-0.56 a 0.37,0.37 0 0 1 0.33,-0.2 z m 7.1,1.32 a 5.4,5.4 0 0 1 -0.1,0.21 5.4,5.4 0 0 0 0.1,-0.21 z m -8.97,1.64 a 5.4,5.4 0 0 0 0.2,0.2 5.4,5.4 0 0 1 -0.2,-0.2 z m 7.82,0.1 a 5.4,5.4 0 0 1 -0.17,0.17 5.4,5.4 0 0 0 0.17,-0.17 z m -4.1,0.06 c 0.16,0 0.27,0.06 0.34,0.19 0.08,0.12 0.11,0.3 0.11,0.56 0,0.25 -0.03,0.44 -0.1,0.56 A 0.36,0.36 0 0 1 6.1,11.75 0.37,0.37 0 0 1 5.76,11.56 1.13,1.13 0 0 1 5.66,11 c 0,-0.25 0.03,-0.44 0.1,-0.56 A 0.37,0.37 0 0 1 6.1,10.25 Z m 3.72,0 c 0.1,0 0.14,0.07 0.2,0.11 a 5.4,5.4 0 0 1 -0.62,0.5 C 9.4,10.7 9.42,10.53 9.48,10.44 a 0.37,0.37 0 0 1 0.33,-0.19 z m -0.42,0.62 a 5.4,5.4 0 0 1 -0.3,0.18 5.4,5.4 0 0 0 0.3,-0.18 z m -5.24,0.5 a 5.4,5.4 0 0 0 0.27,0.1 5.4,5.4 0 0 1 -0.27,-0.1 z m 1.5,0.4 a 5.4,5.4 0 0 0 0.4,0.04 5.4,5.4 0 0 1 -0.4,-0.03 z"
     id="path7"
     inkscape:connector-curvature="0"
     style="fill:#ff7f2a" />
</svg>
